svgs/thin/microwave.svg

<svg xmlns="http://www.w3.org/2000/svg" viewBox="0 0 576 512"><!--! Font Awesome Pro 6.6.0 by @fontawesome - https://fontawesome.com License - https://fontawesome.com/license (Commercial License) Copyright 2024 Fonticons, Inc. --><path d="M512 48c26.5 0 48 21.5 48 48l0 288c0 26.5-21.5 48-48 48L64 432c-26.5 0-48-21.5-48-48L16 96c0-26.5 21.5-48 48-48l448 0zM64 32C28.7 32 0 60.7 0 96L0 384c0 35.3 28.7 64 64 64l0 24c0 4.4 3.6 8 8 8s8-3.6 8-8l0-24 416 0 0 24c0 4.4 3.6 8 8 8s8-3.6 8-8l0-24c35.3 0 64-28.7 64-64l0-288c0-35.3-28.7-64-64-64L64 32zm432 72l0 272c0 4.4 3.6 8 8 8s8-3.6 8-8l0-272c0-4.4-3.6-8-8-8s-8 3.6-8 8zM104 128l304 0c4.4 0 8 3.6 8 8l0 208c0 4.4-3.6 8-8 8l-304 0c-4.4 0-8-3.6-8-8l0-208c0-4.4 3.6-8 8-8zm-24 8l0 208c0 13.3 10.7 24 24 24l304 0c13.3 0 24-10.7 24-24l0-208c0-13.3-10.7-24-24-24l-304 0c-13.3 0-24 10.7-24 24z"/></svg>

<svg xmlns="http://www.w3.org/2000/svg" viewBox="0 0 576 512"><!--! Font Awesome Pro 6.4.0 by @fontawesome - https://fontawesome.com License - https://fontawesome.com/license (Commercial License) Copyright 2023 Fonticons, Inc. --><path d="M512 48c26.5 0 48 21.5 48 48V384c0 26.5-21.5 48-48 48H64c-26.5 0-48-21.5-48-48V96c0-26.5 21.5-48 48-48H512zM64 32C28.7 32 0 60.7 0 96V384c0 35.3 28.7 64 64 64l0 24c0 4.4 3.6 8 8 8s8-3.6 8-8V448H496v24c0 4.4 3.6 8 8 8s8-3.6 8-8V448c35.3 0 64-28.7 64-64V96c0-35.3-28.7-64-64-64H64zm432 72V376c0 4.4 3.6 8 8 8s8-3.6 8-8V104c0-4.4-3.6-8-8-8s-8 3.6-8 8zM104 128H408c4.4 0 8 3.6 8 8V344c0 4.4-3.6 8-8 8H104c-4.4 0-8-3.6-8-8V136c0-4.4 3.6-8 8-8zm-24 8V344c0 13.3 10.7 24 24 24H408c13.3 0 24-10.7 24-24V136c0-13.3-10.7-24-24-24H104c-13.3 0-24 10.7-24 24z"/></svg>
